dist/img/search.svg

<svg width="25" height="25" viewBox="0 0 25 25" fill="none" xmlns="http://www.w3.org/2000/svg">
    <path d="M20.7292 22.0312L13.8281 15.1562C13.3247 15.5903 12.7257 15.9288 12.0313 16.1719C11.3368 16.4149 10.599 16.5364 9.81771 16.5364C7.90799 16.5364 6.28906 15.8767 4.96094 14.5573C3.63281 13.2378 2.96875 11.6406 2.96875 9.76561C2.96875 7.89061 3.63281 6.29339 4.96094 4.97395C6.28906 3.6545 7.89063 2.99478 9.76563 2.99478C11.6406 2.99478 13.2378 3.6545 14.5573 4.97395C15.8767 6.29339 16.5365 7.89061 16.5365 9.76561C16.5365 10.5121 16.4149 11.2326 16.1719 11.9271C15.9288 12.6215 15.5729 13.2726 15.1042 13.8802L22.0312 20.7292L20.7292 22.0312ZM9.79167 14.7656C11.1632 14.7656 12.3307 14.2752 13.2943 13.2943C14.2578 12.3134 14.7396 11.1371 14.7396 9.76561C14.7396 8.39409 14.2578 7.21787 13.2943 6.23697C12.3307 5.25607 11.1632 4.76561 9.79167 4.76561C8.38542 4.76561 7.19618 5.25607 6.22396 6.23697C5.25174 7.21787 4.76562 8.39409 4.76562 9.76561C4.76562 11.1371 5.25174 12.3134 6.22396 13.2943C7.19618 14.2752 8.38542 14.7656 9.79167 14.7656Z" fill="#00E0FF"/>
</svg>

<svg width="25" height="25" fill="none" xmlns="http://www.w3.org/2000/svg"><path d="m20.73 22.031-6.902-6.875a5.501 5.501 0 0 1-1.797 1.016 6.654 6.654 0 0 1-2.213.364c-1.91 0-3.529-.66-4.857-1.979-1.328-1.32-1.992-2.916-1.992-4.791 0-1.875.664-3.473 1.992-4.792 1.328-1.32 2.93-1.98 4.805-1.98 1.875 0 3.472.66 4.791 1.98 1.32 1.32 1.98 2.917 1.98 4.792 0 .746-.122 1.467-.365 2.161a6.937 6.937 0 0 1-1.068 1.953l6.927 6.85-1.302 1.301ZM9.791 14.766c1.371 0 2.539-.49 3.502-1.472.964-.98 1.446-2.157 1.446-3.528 0-1.372-.482-2.548-1.446-3.529-.963-.98-2.13-1.471-3.502-1.471-1.407 0-2.596.49-3.568 1.471-.972.98-1.458 2.157-1.458 3.529 0 1.371.486 2.547 1.458 3.528.972.981 2.161 1.472 3.568 1.472Z" fill="#00E0FF"/></svg>
